!!!COM: Mendelssohn, Felix
!!!CDT: 1809/02/03-1847/11/04
!!!OPR: Sechs vierstimmige Lieder
!!!OTL: Mailied
!!!OPS: Op. 41
!!!ONM: Nr. 5
!!!OMD: Allegro molto vivace
**kern	**text	**dynam	**kern	**text	**dynam	**kern	**text	**dynam	**kern	**text	**dynam
*part4	*part4	*part4	*part3	*part3	*part3	*part2	*part2	*part2	*part1	*part1	*part1
*staff4	*staff4	*	*staff3	*staff3	*	*staff2	*staff2	*	*staff1	*staff1	*
*Ivox	*	*	*Ivox	*	*	*Ivox	*	*	*Ivox	*	*
*I"Bass	*	*	*I"Tenor	*	*	*I"Alt	*	*	*I"Sopran	*	*
*clefF4	*	*	*clefGv2	*	*	*clefG2	*	*	*clefG2	*	*
*k[]	*	*	*k[]	*	*	*k[]	*	*	*k[]	*	*
*M6/8	*	*	*M6/8	*	*	*M6/8	*	*	*M6/8	*	*
=	=	=	=	=	=	=	=	=	=	=	=
8G	Und	f	8G	Und	f	8e	Und	f	8g	Und	f
4G	fri-	.	4c	fri-	.	(8eL	fri-	.	(8gL	fri-	.
.	.	.	.	.	.	8gJ)	.	.	8eeJ)	.	.
8G	-sche	.	8B	-sche	.	8f	-sche	.	8dd	-sche	.
=1	=1	=1	=1	=1	=1	=1	=1	=1	=1	=1	=1
4c	Nah-	.	4c	Nah-	.	4e	Nah-	.	4cc	Nah-	.
8c	-rung	.	8c	-rung	.	8e	-rung	.	8cc	-rung	.
.	.	.	.	.	.	.	.	.	8qdd/	.	.
8cL	neu-	.	8eL	neu-	.	4g	neu-	.	8ccL	neu-	.
8dJ	.	.	8fJ	.	.	.	.	.	8bJ	.	.
8c	-es	.	8e	-es	.	8g	-es	.	8cc	-es	.
=2	=2	=2	=2	=2	=2	=2	=2	=2	=2	=2	=2
4.B	Blut	.	4.d	Blut	.	4.g	Blut	.	4.dd	Blut	.
4.c	saug’	.	4.c	saug’	.	4.g	saug’	.	4.ee	saug’	.
=3	=3	=3	=3	=3	=3	=3	=3	=3	=3	=3	=3
4F	ich	.	4c	ich	.	4a	ich	.	4ff	ich	.
8F	aus	.	8c	aus	.	8g	aus	.	8ee	aus	.
4G	frei-	.	4B	frei-	.	4f	frei-	.	4ee	frei-	.
8G	-er	.	8B	-er	.	8f	-er	.	8dd	-er	.
=4	=4	=4	=4	=4	=4	=4	=4	=4	=4	=4	=4
4.C	Welt;	.	4c	Welt;	.	4.e	Welt;	.	4cc	Welt;	.
.	.	.	8E	wie	f	.	.	.	8g	wie	f
4r	.	.	4G	ist	.	4r	.	.	4cc	ist	.
8r	.	.	8c	Na-	.	8r	.	.	8ee	Na-	.
=5	=5	=5	=5	=5	=5	=5	=5	=5	=5	=5	=5
4r	.	.	[2.e	-tur	.	4r	.	.	[2.gg	-tur	.
8C	wie	f	.	.	.	8g	wie	f	.	.	.
4E	ist	.	.	.	.	4cc	ist	.	.	.	.
8G	Na-	.	.	.	.	8g	Na-	.	.	.	.
=6	=6	=6	=6	=6	=6	=6	=6	=6	=6	=6	=6
4.c	-tur	.	8e]	.	.	[4.g	-tur	.	8gg]	.	.
.	.	.	8r	.	.	.	.	.	8r	.	.
.	.	.	8c	so	.	.	.	.	8ee	so	.
4.G	so	.	4c	hold	.	4g]	.	.	4ee	hold	.
.	.	.	8B	und	.	8f	so	.	8dd	und	.
=7	=7	=7	=7	=7	=7	=7	=7	=7	=7	=7	=7
[4.A	gut,	.	[4.c	gut,	.	(4.e	gut,	.	[4.cc	gut,	.
8A]	.	.	8c]	.	.	4a)	.	.	8cc]	.	.
8r	.	.	8r	.	.	.	.	.	8r	.	.
8B	die	.	8d	die	.	8g	die	.	8b	die	.
=8	=8	=8	=8	=8	=8	=8	=8	=8	=8	=8	=8
4c	mich	.	4e	mich	.	4g	mich	.	4a	mich	.
8c	am	.	8e	am	.	8g	am	.	8a	am	.
.	.	.	.	.	.	.	.	.	8qb/	.	.
4c	Bu-	.	4e	Bu-	.	4g	Bu-	.	8aL	Bu-	.
.	.	.	.	.	.	.	.	.	8g#XJ	.	.
8c	-sen	.	8e	-sen	.	8g	-sen	.	8a	-sen	.
=9	=9	=9	=9	=9	=9	=9	=9	=9	=9	=9	=9
(4.c	hält,	sf	[4.d	hält,	sf	4.f#X	hält,	sf	[4.dd	hält,	sf
4B)	.	.	4d]	.	.	4.g	am	.	8ddL]	.	.
.	.	.	.	.	.	.	.	.	8ccJ	.	.
8BB	am	.	8d	am	.	.	.	.	8b	die	.
=10	=10	=10	=10	=10	=10	=10	=10	=10	=10	=10	=10
4.C	Bu-	.	(4.e	Bu-	.	(4.g	Bu-	.	4a	mich	.
.	.	.	.	.	.	.	.	.	8a	am	.
!	!	!	!	!	!	!	!	!	!LO:TX:a:t=< >	!	!
4.D	-sen	.	4d)	.	.	4f#X)	.	.	4b	Bu-	.
.	.	.	8c	-sen	.	8f#	-sen	.	8a	-sen	.
=11	=11	=11	=11	=11	=11	=11	=11	=11	=11	=11	=11
4G	hält!	.	4B	hält!	.	4g	hält!	.	4.g	hält!	.
8G	Die	p	8B	Die	p	8d	Die	p	.	.	.
4G	Wel-	.	4B	Wel-	.	4d	Wel-	.	4r	.	.
8G	-le	.	8B	-le	.	8d	-le	.	8g	Die	p
=12	=12	=12	=12	=12	=12	=12	=12	=12	=12	=12	=12
4G	wie-	.	4c	wie-	.	4e	wie-	.	4a	Wel-	.
8G	-get	.	8c	-get	.	8e	-get	.	8a	-le	.
4G	un-	.	4c	un-	.	4e	un-	.	4a	wie-	.
8G	-sern	.	8c	-sern	.	8e	-sern	.	8a	-get	.
=13	=13	=13	=13	=13	=13	=13	=13	=13	=13	=13	=13
[2.G	Kahn	.	[2.c	Kahn	.	[2.f#X	Kahn	.	4a	un-	.
.	.	.	.	.	.	.	.	.	8a	-sern	.
.	.	.	.	.	.	.	.	.	4b	Kahn	<
.	.	.	.	.	.	.	.	.	8cc	im	[[
=14	=14	=14	=14	=14	=14	=14	=14	=14	=14	=14	=14
4.G]	.	.	4.c]	.	.	4.f#X]	.	.	4ee	Ru-	>
.	.	.	.	.	.	.	.	.	8dd	-der-	.
4.G	hin-	.	4.c	hin-	.	4.f#	hin-	.	4cc	-takt	]
.	.	.	.	.	.	.	.	.	8a	hin-	.
=15	=15	=15	=15	=15	=15	=15	=15	=15	=15	=15	=15
4G	-auf,	.	4B	-auf,	.	4g	-auf,	.	4.g	-auf,	.
8G	und	.	8B	und	.	8d	und	.	.	.	.
4G	Ber-	.	4B	Ber-	.	4d	Ber-	.	4r	.	.
8G	-ge,	.	8B	-ge,	.	8d	-ge,	.	8g	und	.
=16	=16	=16	=16	=16	=16	=16	=16	=16	=16	=16	=16
4G	wol-	.	4c#X	wol-	.	4e	wol-	.	4a	Ber-	.
8G	-kig	<	8c#	-kig	<	8e	-kig	<	8a	-ge,	<
4G	him-	.	4c#	him-	.	4e	him-	.	4a	wol-	.
8G	-mel-	.	8c#	-mel-	.	8e	-mel-	.	8a	-kig	.
=17	=17	=17	=17	=17	=17	=17	=17	=17	=17	=17	=17
[2.G	-an,	.	[2.d	-an,	.	2.fn	-an,	.	4a	him-	.
.	.	.	.	.	.	.	.	.	8a	-mel-	.
.	.	.	.	.	.	.	.	.	4b	-an,	<
.	.	.	.	.	.	.	.	.	8cc	be-	[[
=18	=18	=18	=18	=18	=18	=18	=18	=18	=18	=18	=18
4G]	.	.	4.d]	.	.	[4.f	him-	.	4ee	-geg-	>
8r	.	.	.	.	.	.	.	.	8dd	-nen	.
4.G	und	.	4r	.	.	4f]	.	.	4b	un-	]
.	.	.	8r	.	.	8f	-mel-	.	8g	-serm	.
=19	=19	=19	=19	=19	=19	=19	=19	=19	=19	=19	=19
4.c	Ber-	.	4r	.	.	4.e	-an,	.	4g	Lauf,	.
.	.	.	8cn	und	.	.	.	.	8r	.	.
4.B-X	-ge,	.	8cL	Ber-	.	4r	.	.	4.cc	und	.
.	.	.	8dJ	.	.	.	.	.	.	.	.
.	.	.	8c	-ge,	.	8e	und	.	.	.	.
=20	=20	=20	=20	=20	=20	=20	=20	=20	=20	=20	=20
4.A	wol-	.	8cL	wol-	.	4.f	Ber-	.	4.ff	Ber-	.
.	.	.	8d	.	.	.	.	.	.	.	.
.	.	.	8cJ	.	.	.	.	.	.	.	.
4.G	-kig,	.	8cL	-kig	.	4.g	-ge,	.	4.ee	-ge,	.
.	.	.	8d	.	.	.	.	.	.	.	.
.	.	.	8cJ	.	.	.	.	.	.	.	.
=21	=21	=21	=21	=21	=21	=21	=21	=21	=21	=21	=21
[4.F	wol-	.	8cL	him-	.	[4.a	wol-	.	[4.dd	wol-	.
.	.	.	8dJ	.	.	.	.	.	.	.	.
.	.	.	8c	-mel-	.	.	.	.	.	.	.
8FL]	.	.	4.c	-an,	.	4a]	.	.	8ddL]	.	.
8GJ	.	.	.	.	.	.	.	.	8eeJ	.	.
8F	-kig	.	.	.	.	8a	-kig	.	8dd	-kig	.
=22	=22	=22	=22	=22	=22	=22	=22	=22	=22	=22	=22
4.A	him-	.	8cL	wol-	.	4.f	him-	.	4.ff	him-	.
.	.	.	8d	.	.	.	.	.	.	.	.
.	.	.	8cJ	.	.	.	.	.	.	.	.
4.G	-mel-	.	8cL	-kig	.	4.g	-mel-	.	4.ee	-mel-	.
.	.	.	8d	.	.	.	.	.	.	.	.
.	.	.	8cJ	.	.	.	.	.	.	.	.
=23	=23	=23	=23	=23	=23	=23	=23	=23	=23	=23	=23
2.F#X	-an,	.	(8cL	him-	.	([4.a	-an,	.	4.dd	-an,	.
.	.	.	8d	.	.	.	.	.	.	.	.
.	.	.	8cJ)	.	.	.	.	.	.	.	.
.	.	.	4.c	-mel-	.	8aL]	.	.	4r	.	.
.	.	.	.	.	.	8b	.	.	.	.	.
.	.	.	.	.	.	8aJ	.	.	8dd	be-	.
=24	=24	=24	=24	=24	=24	=24	=24	=24	=24	=24	=24
(8FnL	him-	.	[4.B	-an,	.	[4.g)	.	.	[4.dd	-geg	.
8GJ)	.	.	.	.	.	.	.	.	.	.	.
8F	-mel-	.	.	.	.	.	.	.	.	.	.
4F	-an,	.	8B]	.	.	8g]	.	.	(8ddL]	.	.
.	.	.	8r	.	.	8r	.	.	8ee	.	.
8F	be-	.	8B	be-	.	8g	be-	.	8ddJ	.	.
=25	=25	=25	=25	=25	=25	=25	=25	=25	=25	=25	=25
4.E	-geg-	.	4.c	-geg-	.	4.g	-geg-	.	4gg	.	.
.	.	.	.	.	.	.	.	.	8ee)	.	.
4.F	-nen	.	4.c	-nen	.	(4a	-nen	.	(4cc	-nen	.
.	.	.	.	.	.	8f)	.	.	8a)	.	.
=26	=26	=26	=26	=26	=26	=26	=26	=26	=26	=26	=26
4.G	un-	.	(4c	un-	.	(4e	un-	.	(4g	un-	.
.	.	.	8G)	.	.	8g)	.	.	8ee)	.	.
4.G	-serm	.	(4B	-serm	.	(4f	-serm	.	(4dd	-serm	.
.	.	.	8d)	.	.	8g)	.	.	8b)	.	.
=27	=27	=27	=27	=27	=27	=27	=27	=27	=27	=27	=27
[2.C	Lauf,	.	(4c	Lauf,	.	(4e	Lauf,	.	4.cc	Lauf,	.
.	.	.	8A)	.	.	8f	.	.	.	.	.
.	.	.	(4G	be-	.	4e	.	.	4r	.	.
.	.	.	8A)	.	.	8f	.	.	8r	.	.
=28	=28	=28	=28	=28	=28	=28	=28	=28	=28	=28	=28
4C]	.	.	[2.G	-geg-	.	4e)	.	.	(4cc	un-	.
8r	.	.	.	.	.	8r	.	.	8ee)	.	.
4.G	be-	.	.	.	.	4.f	be-	.	(4dd	-serm	.
.	.	.	.	.	.	.	.	.	8b)	.	.
=29	=29	=29	=29	=29	=29	=29	=29	=29	=29	=29	=29
[2.C	-geg-	.	(4G]	-­-	.	(4e	-geg-	.	[2.cc	Lauf,	.
.	.	.	8A)	.	.	8f)	.	.	.	.	.
.	.	.	(4G	-nen	.	(4e	-nen	.	.	.	.
.	.	.	8A)	.	.	8f)	.	.	.	.	.
=30	=30	=30	=30	=30	=30	=30	=30	=30	=30	=30	=30
4.C]	.	.	4.G	un-	.	4.e	un-	.	(4cc]	.	.
.	.	.	.	.	.	.	.	.	8ee)	.	.
4.G	-nen	.	4.G	-serm	.	4.f	-serm	.	(4dd	be-	.
.	.	.	.	.	.	.	.	.	8b)	.	.
=31	=31	=31	=31	=31	=31	=31	=31	=31	=31	=31	=31
[2.C	un-	>	2.G	Lauf,	>	(4.e	Lauf,	>	(4cc	-geg-	>
.	.	.	.	.	.	.	.	.	8ee)	.	.
.	.	.	.	.	.	4.f)	.	.	(4dd	-nen	.
.	.	.	.	.	.	.	.	.	8b)	.	.
=32	=32	=32	=32	=32	=32	=32	=32	=32	=32	=32	=32
4.C]	.	.	4.G	un-	.	4.e	un-	.	(4cc	un-	.
.	.	.	.	.	.	.	.	.	8ee)	.	.
4.C	-serm	.	4.G	-serm	.	4.f	-serm	.	(4dd	-serm	.
.	.	.	.	.	.	.	.	.	8b)	.	.
=33	=33	=33	=33	=33	=33	=33	=33	=33	=33	=33	=33
[2.C	Lauf.	.	2.G	Lauf.	.	[2.e	Lauf.	.	[2.cc	Lauf.	.
=34	=34	=34	=34	=34	=34	=34	=34	=34	=34	=34	=34
4.C]	.	.	4.e	Aug’,	pp	4.e]	.	.	4.cc]	.	.
4r	.	.	4.e	mein	.	4r	.	.	4r	.	.
8r	.	.	.	.	.	8r	.	.	8r	.	.
=35	=35	=35	=35	=35	=35	=35	=35	=35	=35	=35	=35
2.r	.	.	[2.e	Aug’,	.	2.r	.	.	2.r	.	.
=36	=36	=36	=36	=36	=36	=36	=36	=36	=36	=36	=36
2.r	.	.	2.e_	.	.	4.cc	Aug’,	pp	4.ee	Aug’,	pp
.	.	.	.	.	.	4.b	mein	.	4.dd	mein	.
=37	=37	=37	=37	=37	=37	=37	=37	=37	=37	=37	=37
2.r	.	.	4e]	.	.	[4.a	Aug’,	.	[4.cc	Aug’,	.
.	.	.	8r	.	.	.	.	.	.	.	.
.	.	.	4r	.	.	4a]	.	.	4cc]	.	.
.	.	.	8e	was	.	8a	was	.	8cc	was	.
=38	=38	=38	=38	=38	=38	=38	=38	=38	=38	=38	=38
!	!	!	!	!	!	!LO:TX:a:t=< >	!	!	!LO:TX:a:t=< >	!	!
2.r	.	.	4.e	sinkst	.	4.b	sinkst	.	4.dd	sinkst	.
.	.	.	4.e	du	.	4.a	du	.	4.cc	du	.
=39	=39	=39	=39	=39	=39	=39	=39	=39	=39	=39	=39
2.r	.	.	4.e	nie-	.	4.a	nie-	.	4.cc	nie-	.
.	.	.	[4.E	-der?	.	[4.g#X	-der?	.	[4.b	-der?	.
=40	=40	=40	=40	=40	=40	=40	=40	=40	=40	=40	=40
4.E	gold-	p	4.E]	.	.	4.g#]	.	.	4.b]	.	.
4.E	-ne	.	4r	.	.	4r	.	.	4r	.	.
.	.	.	8r	.	.	8r	.	.	8r	.	.
=41	=41	=41	=41	=41	=41	=41	=41	=41	=41	=41	=41
[2.E	Trau-	.	2.r	.	.	2.r	.	.	2.r	.	.
=42	=42	=42	=42	=42	=42	=42	=42	=42	=42	=42	=42
2.E_	-­-	.	4.B	gold-	p	4.g#X	gold-	p	4.ee	gold-	p
.	.	.	4.B	-ne	.	4.g#	-ne	.	4.dd	-ne	.
=43	=43	=43	=43	=43	=43	=43	=43	=43	=43	=43	=43
2.E_	.	.	[4.A	Trau-	.	[4.a	Trau-	.	[4.cc#X	Trau-	.
.	.	.	4A]	.	.	4a]	.	.	4cc#]	.	.
.	.	.	8A	-me,	.	8a	-me,	.	8cc#	-me,	.
=44	=44	=44	=44	=44	=44	=44	=44	=44	=44	=44	=44
!	!	!	!LO:TX:a:t=< >	!	!	!LO:TX:a:t=< >	!	!	!LO:TX:a:t=< >	!	!
2.E_	.	.	4.G#X	kommt	.	4.b	kommt	.	4.dd	kommt	.
.	.	.	4.A	ihr	.	4.a	ihr	.	4.cc#X	ihr	.
=45	=45	=45	=45	=45	=45	=45	=45	=45	=45	=45	=45
4.E]	.	.	[2.e	wie-	.	4.a	wie-	.	4.cc#X	wie-	.
4.E	-me,	.	.	.	.	4.g#X	-der?	.	4.b	-der?	.
=46	=46	=46	=46	=46	=46	=46	=46	=46	=46	=46	=46
4.D	kommt	.	(2.e]	.	.	4.g#X	kommt	<	4.b	kommt	<
4.C#X	du	.	.	.	.	4.a	du	[[	4.cc#X	du	[[
=47	=47	=47	=47	=47	=47	=47	=47	=47	=47	=47	=47
(2.BB	wie-	.	(2.f#X)	.	.	(2.a	wie-	.	[2.dd	wie-	sf
=48	=48	=48	=48	=48	=48	=48	=48	=48	=48	=48	=48
2.E)	.	.	2.e)	.	.	2.g#X)	.	.	(4.dd]	.	.
.	.	.	.	.	.	.	.	.	4.ee)	.	.
=49	=49	=49	=49	=49	=49	=49	=49	=49	=49	=49	=49
[2.AA	­der?	.	2.e	­der?	.	2.a	­der?	.	2.cc#X	-­der?	.
=50	=50	=50	=50	=50	=50	=50	=50	=50	=50	=50	=50
4.AA]	.	.	4.f#X	Aug’,	p	4.a	Aug’,	p	2.r	.	.
4r	.	.	4.e	mein	.	4.g#X	mein	.	.	.	.
8r	.	.	.	.	.	.	.	.	.	.	.
=51	=51	=51	=51	=51	=51	=51	=51	=51	=51	=51	=51
2.r	.	.	4.d	Aug’,	.	4.f#X	Aug’,	.	2.r	.	.
.	.	.	4.c#X	was	.	4.e	was	.	.	.	.
=52	=52	=52	=52	=52	=52	=52	=52	=52	=52	=52	=52
[4.E	gold-	.	[4.G#X	sinkst	.	[4.d	sinkst	.	[4.b	gold-	sf
4E]	.	.	4G#]	.	.	4d]	.	.	4b]	.	.
8E	-ne	.	8G#	du	.	8e	du	.	8cc#X	-ne	.
=53	=53	=53	=53	=53	=53	=53	=53	=53	=53	=53	=53
4.E	Träu-	.	4.G#X	nie-	.	4.d	nie-	.	4.b	Träu-	.
4.AA	-me,	.	4.A	-der?	.	4.c#X	-der?	.	4.a	-me,	.
=54	=54	=54	=54	=54	=54	=54	=54	=54	=54	=54	=54
2.r	.	.	4.f#X	gold-	.	4.a	gold-	.	2.r	.	.
.	.	.	4.e	-ne	.	4.g#X	-ne	.	.	.	.
=55	=55	=55	=55	=55	=55	=55	=55	=55	=55	=55	=55
2.r	.	.	4.d	Träu-	.	4.f#X	Träu-	.	2.r	.	.
.	.	.	4.c#X	-me,	.	4.e	-me,	.	.	.	.
=56	=56	=56	=56	=56	=56	=56	=56	=56	=56	=56	=56
[4.E	kommt	.	4.G#X	kommt	.	[4.d	kommt	.	[4.b	kommt	sf
4E]	.	.	4G#	.	.	4d]	.	.	4b]	.	.
8E	ihr	.	8G#	ihr	.	8e	ihr	.	8cc#X	ihr	.
=57	=57	=57	=57	=57	=57	=57	=57	=57	=57	=57	=57
4.E	wie-	.	4.G#X	wie-	.	4.d	wie-	.	4.b	wie-	.
4F#X	-der?	.	4A	-der?	.	4c#X	-der?	.	4a	-der?	.
8r	.	.	8r	.	.	8r	.	.	8r	.	.
=58	=58	=58	=58	=58	=58	=58	=58	=58	=58	=58	=58
4.F#X	gold-	p	4.A	gold-	p	4.c#X	gold-	p	4.a	gold-	p
4.F#	-ne	.	4.A	-ne	.	4.c#	-ne	.	4.a	-ne	.
=59	=59	=59	=59	=59	=59	=59	=59	=59	=59	=59	=59
4.F#X	Träu-	<	4.A	Träu-	<	4.d#X	Träu-	<	4.a	Träu-	<
4.F#	-me,	.	4.A	-me,	.	4.d#	-me,	.	4.a	-me,	.
=60	=60	=60	=60	=60	=60	=60	=60	=60	=60	=60	=60
4.F#X	kommt	.	4.A	kommt	.	4.d#X	kommt	.	4.g#X	kommt	.
4.F#	ihr	[[	4.A	ihr	[[	4.d#	ihr	[[	4.a	ihr	[[
=61	=61	=61	=61	=61	=61	=61	=61	=61	=61	=61	=61
2.E;	wie-	f	2.A;	wie-	f	2.e;	wie-	f	2.cc#X;	wie-	f
=62	=62	=62	=62	=62	=62	=62	=62	=62	=62	=62	=62
2.E;	-der?	.	2.G#X;	-der?	.	2.e;	-der?	.	2.b;	-der?	.
=63	=63	=63	=63	=63	=63	=63	=63	=63	=63	=63	=63
2.r	.	.	[4.e	Weg,	f	2.r	.	.	2.r	.	.
.	.	.	4e]	.	.	.	.	.	.	.	.
.	.	.	8E	du	.	.	.	.	.	.	.
=64	=64	=64	=64	=64	=64	=64	=64	=64	=64	=64	=64
4r	.	.	[2.E	Traum!	.	4r	.	.	4r	.	.
8r	.	.	.	.	.	8r	.	.	8r	.	.
4.E	was	p	.	.	.	4.e	was	p	4.e	was	p
=65	=65	=65	=65	=65	=65	=65	=65	=65	=65	=65	=65
4.C#X	sinkst	<	2.E]	.	.	4.e	sinkst	<	4.a	sinkst	<
4.AA	du	[[	.	.	.	4.a	du	[[	4.cc#X	du	[[
=66	=66	=66	=66	=66	=66	=66	=66	=66	=66	=66	=66
2.E	nie-	.	2.r	.	.	2.a	nie-	.	2.cc#X	nie-	.
=67	=67	=67	=67	=67	=67	=67	=67	=67	=67	=67	=67
4.E	-der?	.	[4.e	weg,	f	4.g#X	-der?	.	4.b	-der?	.
4r	.	.	4e]	.	.	4r	.	.	4r	.	.
8r	.	.	8E	du	.	8r	.	.	8r	.	.
=68	=68	=68	=68	=68	=68	=68	=68	=68	=68	=68	=68
4r	.	.	[2.E	Traum!	.	4r	.	.	4r	.	.
8r	.	.	.	.	.	8r	.	.	8r	.	.
4.E	was	p	.	.	.	4.e	was	p	4.e	was	p
=69	=69	=69	=69	=69	=69	=69	=69	=69	=69	=69	=69
4.C#X	sinkst	<	2.E]	.	.	4.e	sinkst	<	4.a	sinkst	<
4.AA	du	[[	.	.	.	4.a	du	[[	4.cc#X	du	[[
=70	=70	=70	=70	=70	=70	=70	=70	=70	=70	=70	=70
2.E	nie-	.	2.r	.	.	2.a	nie-	.	2.cc#X	nie-	.
=71	=71	=71	=71	=71	=71	=71	=71	=71	=71	=71	=71
4.E	-der?	.	[4.e	weg,	f	4.g#X	-der?	.	4.b	-der?	.
4r	.	.	4e]	.	.	4r	.	.	4r	.	.
8r	.	.	8B	du	.	8r	.	.	8r	.	.
=72	=72	=72	=72	=72	=72	=72	=72	=72	=72	=72	=72
2.r	.	.	4.B	Traum!	.	2.r	.	.	2.r	.	.
.	.	.	4.B	so	.	.	.	.	.	.	.
=73	=73	=73	=73	=73	=73	=73	=73	=73	=73	=73	=73
2.r	.	.	[4.cn	Gold	sf	2.r	.	.	2.r	.	.
.	.	.	4c]	.	.	.	.	.	.	.	.
.	.	.	8A	du	.	.	.	.	.	.	.
=74	=74	=74	=74	=74	=74	=74	=74	=74	=74	=74	=74
2.r	.	.	2.G#X	bist,	.	2.r	.	.	2.r	.	.
=75	=75	=75	=75	=75	=75	=75	=75	=75	=75	=75	=75
[4.G#X	Weg,	f	[2.e	Weg,	f	[4.b	Weg,	f	[4.ee	Weg,	f
4G#]	.	.	.	.	.	4b]	.	.	4ee]	.	.
8G#	du	.	.	.	.	8e	du	.	8b	du	.
=76	=76	=76	=76	=76	=76	=76	=76	=76	=76	=76	=76
4.G#X	Traum,	.	4e]	.	.	4.e	Traum,	.	4.b	Traum,	.
.	.	.	8r	.	.	.	.	.	.	.	.
4.G#	so	.	4.d	so	.	4.e	so	.	4.b	so	.
=77	=77	=77	=77	=77	=77	=77	=77	=77	=77	=77	=77
[4.A	Gold	.	[4.c	Gold	.	[4.e	Gold	.	[4.ccn	Gold	.
4A]	.	.	4c]	.	.	4e]	.	.	4cc]	.	.
8A	du	.	8c	du	.	8e	du	.	8a	du	.
=78	=78	=78	=78	=78	=78	=78	=78	=78	=78	=78	=78
2.B	bist!	.	2.B	bist!	.	2.e	bist!	.	2.g#X	bist!	.
=79	=79	=79	=79	=79	=79	=79	=79	=79	=79	=79	=79
4.A	hier	f	2.r	.	.	2.r	.	.	2.r	.	.
4.B	auch	.	.	.	.	.	.	.	.	.	.
=80	=80	=80	=80	=80	=80	=80	=80	=80	=80	=80	=80
4.c	Lieb’	.	2.r	.	.	2.r	.	.	2.r	.	.
!LO:TX:a:t=ritard.	!	!	!	!	!	!	!	!LO:TX:a:t=ritard.	!	!	!
4.A	und	.	.	.	.	.	.	.	.	.	.
=81	=81	=81	=81	=81	=81	=81	=81	=81	=81	=81	=81
4.Gn	Le-	.	2.r	.	.	2.r	.	.	2.r	.	.
4.F#X	-ben	.	.	.	.	.	.	.	.	.	.
=82	=82	=82	=82	=82	=82	=82	=82	=82	=82	=82	=82
!	!	!	!	!	!	!	!	!	!LO:TX:a:i:t=a Tempo	!	!
[2.G	ist.	.	4r	.	.	4r	.	.	4r	.	.
.	.	.	8G	Und	f	8g	Und	f	8g	Und	f
.	.	.	4g	fri-	.	8gL	fri-	.	(8gL	fri-	.
.	.	.	.	.	.	8ccJ	.	.	8eeJ)	.	.
.	.	.	8f	-sche	.	8b	-sche	.	8dd	-sche	.
=83	=83	=83	=83	=83	=83	=83	=83	=83	=83	=83	=83
8G]	.	.	4e	Nah-	.	4cc	Nah-	.	4cc	Nah-	.
8r	.	.	.	.	.	.	.	.	.	.	.
8G	Und	f	8e	-rung	.	8g	-rung	.	8cc	-rung	.
.	.	.	.	.	.	.	.	.	8qdd/	.	.
4G	neu-	.	8eL	neu-	.	8gL	neu-	.	8ccL	neu-	.
.	.	.	8dJ	.	.	8fJ	.	.	8bJ	.	.
8c	-es	.	8c	-es	.	8e	-es	.	8cc	-es	.
=84	=84	=84	=84	=84	=84	=84	=84	=84	=84	=84	=84
4.B	Blut	.	4.d	Blut	.	4.g	Blut	.	4.dd	Blut	.
4.c	saug’	.	4.c	saug’	.	4.g	saug’	.	4.ee	saug’	.
=85	=85	=85	=85	=85	=85	=85	=85	=85	=85	=85	=85
4F	ich	.	4c	ich	.	4a	ich	.	4ff	ich	.
8F	aus	.	8c	aus	.	8g	aus	.	8ee	aus	.
4G	frei-	.	4B	frei-	.	4f	frei-	.	4ee	frei-	.
8G	-er	.	8B	-er	.	8f	-er	.	8dd	-er	.
=86	=86	=86	=86	=86	=86	=86	=86	=86	=86	=86	=86
4.C	Welt;	.	4c	Welt;	.	4.e	Welt;	.	4cc	Welt;	.
.	.	.	8E	wie	f	.	.	.	8g	wie	f
4r	.	.	4G	ist	.	4r	.	.	4cc	ist	.
8r	.	.	8c	Na-	.	8r	.	.	8ee	Na-	.
=87	=87	=87	=87	=87	=87	=87	=87	=87	=87	=87	=87
4r	.	.	[2.e	-tur	.	4r	.	.	[2.gg	-tur	.
8C	wie	f	.	.	.	8g	wie	f	.	.	.
4E	ist	.	.	.	.	4cc	ist	.	.	.	.
8G	Na-	.	.	.	.	8g	Na-	.	.	.	.
=88	=88	=88	=88	=88	=88	=88	=88	=88	=88	=88	=88
4.c	-tur	.	8e]	.	.	[4.g	­tur	.	8gg]	.	.
.	.	.	8r	.	.	.	.	.	8r	.	.
.	.	.	8c	so	.	.	.	.	8ee	so	.
4.G	so	.	4c	hold	.	4g]	.	.	4ee	hold	.
.	.	.	8B	und	.	8f	so	.	8dd	und	.
=89	=89	=89	=89	=89	=89	=89	=89	=89	=89	=89	=89
[4.A	gut,	.	[4.c	gut,	.	(4.e	gut,	.	[4.cc	gut,	.
8A]	.	.	8c]	.	.	4a)	.	.	8cc]	.	.
8r	.	.	8r	.	.	.	.	.	8r	.	.
8B	die	.	8d	die	.	8g	die	.	8b	die	.
=90	=90	=90	=90	=90	=90	=90	=90	=90	=90	=90	=90
4c	mich	.	4e	mich	.	4g	mich	.	4a	mich	.
8c	am	.	8e	am	.	8g	am	.	8a	am	.
.	.	.	.	.	.	.	.	.	8qb/	.	.
4c	Bu-	.	4e	Bu-	.	4g	Bu-	.	8aL	Bu-	.
.	.	.	.	.	.	.	.	.	8g#XJ	.	.
8c	-sen	.	8e	-sen	.	8g	-sen	.	8a	-sen	.
=91	=91	=91	=91	=91	=91	=91	=91	=91	=91	=91	=91
(4.c	hält,	sf	[4.d	hält,	sf	4.f#X	hält,	sf	[4.dd	hält,	sf
4B)	.	.	4d]	.	.	4.g	am	.	8ddL]	.	.
.	.	.	.	.	.	.	.	.	8ccJ	.	.
8BB	am	.	8d	am	.	.	.	.	8b	die	.
=92	=92	=92	=92	=92	=92	=92	=92	=92	=92	=92	=92
4.C	Bu-	.	(4.e	Bu-	.	(4.g	Bu-	.	4a	mich	.
.	.	.	.	.	.	.	.	.	8a	am	< [
4.D	-sen	.	4d)	.	.	4f#X)	.	.	4b	Bu-	> ]
.	.	.	8c	-sen	.	8f#	-sen	.	8a	-sen	.
=93	=93	=93	=93	=93	=93	=93	=93	=93	=93	=93	=93
4G	hält,	.	4B	hält,	.	4g	hält,	.	4.g	hält,	.
8G	die	p	8B	die	p	8d	die	p	.	.	.
4G	Wel-	.	4B	Wel-	.	4d	Wel-	.	4r	.	.
8G	-le	.	8B	-le	.	8d	-le	.	8g	die	p
=94	=94	=94	=94	=94	=94	=94	=94	=94	=94	=94	=94
4G	wie-	.	4c	wie-	.	4e	wie-	.	4a	Wel-	.
8G	-get	.	8c	-get	.	8e	-get	.	8a	-le	.
4G	un-	.	4c	un-	.	4e	un-	.	4a	wie-	.
8G	-sern	.	8c	-sern	.	8e	-sern	.	8a	-get	.
=95	=95	=95	=95	=95	=95	=95	=95	=95	=95	=95	=95
[2.G	Kahn	.	[2.c	Kahn	.	[2.f#X	Kahn	.	4a	un-	.
.	.	.	.	.	.	.	.	.	8a	-sern	.
.	.	.	.	.	.	.	.	.	4b	Kahn	<
.	.	.	.	.	.	.	.	.	8cc	im	[[
=96	=96	=96	=96	=96	=96	=96	=96	=96	=96	=96	=96
4.G]	.	.	4.c]	.	.	4.f#X]	.	.	4ee	Ru-	>
.	.	.	.	.	.	.	.	.	8dd	-der-	]]
4.G	hin-	.	4.c	hin-	.	4.f#	hin-	.	4cc	-takt	.
.	.	.	.	.	.	.	.	.	8a	hin-	.
=97	=97	=97	=97	=97	=97	=97	=97	=97	=97	=97	=97
4G	-auf,	.	4B	-auf,	.	4g	-auf,	.	4.g	-auf,	.
8G	und	.	8B	und	.	8d	und	.	.	.	.
4G	Ber-	.	4B	Ber-	.	4d	Ber-	.	4r	.	.
8G	-ge,	.	8B	-ge,	.	8d	-ge,	.	8g	und	.
=98	=98	=98	=98	=98	=98	=98	=98	=98	=98	=98	=98
4G	wol-	.	4c#X	wol-	.	4e	wol-	.	4a	Ber-	.
8G	-kig	<	8c#	-kig	<	8e	-kig	<	8a	-ge,	<
4G	him-	.	4c#	him-	.	4e	him-	.	4a	wol-	.
8G	-mel-	.	8c#	-mel-	.	8e	-mel-	.	8a	-kig	.
=99	=99	=99	=99	=99	=99	=99	=99	=99	=99	=99	=99
[2.G	-an,	.	[2.d	-an,	.	2.fn	-an,	.	4a	him-	.
.	.	.	.	.	.	.	.	.	8a	-mel-	.
.	.	.	.	.	.	.	.	.	4b	-an,	.
.	.	.	.	.	.	.	.	.	8cc	be-	<
=100	=100	=100	=100	=100	=100	=100	=100	=100	=100	=100	=100
4G]	.	.	4.d]	.	.	[4.f	him-	.	4ee	-geg-	[ > ]
8r	.	.	.	.	.	.	.	.	8dd	-nen	.
4.G	und	.	4r	.	.	4f]	.	.	4b	un-	.
.	.	.	8r	.	.	8f	-mel-	.	8g	-serm	.
=101	=101	=101	=101	=101	=101	=101	=101	=101	=101	=101	=101
4.c	Ber-	.	4r	.	.	4.e	-an,	.	4g	Lauf,	.
.	.	.	8cn	und	.	.	.	.	8r	.	.
4.B-X	-ge,	.	8cL	Ber-	.	4r	.	.	4.cc	und	.
.	.	.	8dJ	.	.	.	.	.	.	.	.
.	.	.	8c	-ge,	.	8e	und	.	.	.	.
=102	=102	=102	=102	=102	=102	=102	=102	=102	=102	=102	=102
4.A	wol-	.	8cL	wol-	.	4.f	Ber-	.	4.ff	Ber-	.
.	.	.	8d	.	.	.	.	.	.	.	.
.	.	.	8cJ	.	.	.	.	.	.	.	.
4.G	-kig,	.	8cL	-kig	.	4.g	-ge,	.	4.ee	-ge,	.
.	.	.	8d	.	.	.	.	.	.	.	.
.	.	.	8cJ	.	.	.	.	.	.	.	.
=103	=103	=103	=103	=103	=103	=103	=103	=103	=103	=103	=103
[4.F	wol-	.	8cL	him-	.	[4.a	wol-	.	[4.dd	wol-	.
.	.	.	8dJ	.	.	.	.	.	.	.	.
.	.	.	8c	-mel-	.	.	.	.	.	.	.
8FL]	.	.	4.c	-an,	.	4a]	.	.	8ddL]	.	.
8GJ	.	.	.	.	.	.	.	.	8eeJ	.	.
8F	-kig	.	.	.	.	8a	-kig	.	8dd	-kig	.
=104	=104	=104	=104	=104	=104	=104	=104	=104	=104	=104	=104
4.A	him-	.	8cL	wol-	.	4.f	him-	.	4.ff	him-	.
.	.	.	8d	.	.	.	.	.	.	.	.
.	.	.	8cJ	.	.	.	.	.	.	.	.
4.G	-mel-	.	8cL	-kig	.	4.g	-mel-	.	4.ee	-mel-	.
.	.	.	8d	.	.	.	.	.	.	.	.
.	.	.	8cJ	.	.	.	.	.	.	.	.
=105	=105	=105	=105	=105	=105	=105	=105	=105	=105	=105	=105
2.F#X	-an,	.	(8cL	him-	.	([4.a	-an,	.	4.dd	-an,	.
.	.	.	8d	.	.	.	.	.	.	.	.
.	.	.	8cJ)	.	.	.	.	.	.	.	.
.	.	.	4.c	-mel-	.	8aL]	.	.	4r	.	.
.	.	.	.	.	.	8b	.	.	.	.	.
.	.	.	.	.	.	8aJ	.	.	8dd	be-	.
=106	=106	=106	=106	=106	=106	=106	=106	=106	=106	=106	=106
(8FnL	him-	.	[4.B	-an,	.	[4.g)	.	.	[4.dd	-geg-	.
8GJ)	.	.	.	.	.	.	.	.	.	.	.
8F	-mel-	.	.	.	.	.	.	.	.	.	.
4F	-an,	.	8B]	.	.	8g]	.	.	(8ddL]	.	.
.	.	.	8r	.	.	8r	.	.	8ee	.	.
8F	be-	.	8B	be-	.	8g	be-	.	8ddJ	.	.
=107	=107	=107	=107	=107	=107	=107	=107	=107	=107	=107	=107
4.E	-geg-	.	4.c	-geg-	.	4.g	-geg-	.	4gg	.	.
.	.	.	.	.	.	.	.	.	8ee)	.	.
4.F	-nen	.	4.c	-nen	.	(4a	-nen	.	(4cc	-nen	.
.	.	.	.	.	.	8f)	.	.	8a)	.	.
=108	=108	=108	=108	=108	=108	=108	=108	=108	=108	=108	=108
4.G	un-	.	(4c	un-	.	(4e	un-	.	(4g	un-	.
.	.	.	8G)	.	.	8g)	.	.	8ee)	.	.
4.G	-serm	.	(4B	-serm	.	(4f	-serm	.	(4dd	-serm	.
.	.	.	8d)	.	.	8g)	.	.	8b)	.	.
=109	=109	=109	=109	=109	=109	=109	=109	=109	=109	=109	=109
[2.C	Lauf,	.	(4c	Lauf,	.	(4e	Lauf,	.	4.cc	Lauf,	.
.	.	.	8A)	.	.	8f	.	.	.	.	.
.	.	.	(4G	be-	.	4e	.	.	4r	.	.
.	.	.	8A)	.	.	8f	.	.	8r	.	.
=110	=110	=110	=110	=110	=110	=110	=110	=110	=110	=110	=110
4C]	.	.	[2.G	-geg-	.	4e)	.	.	(4cc	un-	.
8r	.	.	.	.	.	8r	.	.	8ee)	.	.
4.G	be-	.	.	.	.	4.f	be-	.	(4dd	-serm	.
.	.	.	.	.	.	.	.	.	8b)	.	.
=111	=111	=111	=111	=111	=111	=111	=111	=111	=111	=111	=111
[2.C	-geg-	.	(4G]	.	.	(4e	-geg-	.	[2.cc	Lauf,	.
.	.	.	8A)	.	.	8f)	.	.	.	.	.
.	.	.	(4G	-nen	.	(4e	-nen	.	.	.	.
.	.	.	8A)	.	.	8f)	.	.	.	.	.
=112	=112	=112	=112	=112	=112	=112	=112	=112	=112	=112	=112
4.C]	.	.	4.G	un-	.	4.e	un-	.	(4cc]	.	.
.	.	.	.	.	.	.	.	.	8ee)	.	.
4.G	-nen	.	4.G	-serm	.	4.f	-serm	.	(4dd	be-	.
.	.	.	.	.	.	.	.	.	8b)	.	.
=113	=113	=113	=113	=113	=113	=113	=113	=113	=113	=113	=113
[2.C	un-	>	[2.G	Lauf,	>	(4.e	Lauf,	>	(4cc	-geg-	>
.	.	.	.	.	.	.	.	.	8ee)	.	.
.	.	.	.	.	.	4.f	.	.	(4dd	-nen	.
.	.	.	.	.	.	.	.	.	8b)	.	.
=114	=114	=114	=114	=114	=114	=114	=114	=114	=114	=114	=114
4.C]	.	.	4.G]	.	.	4.e)	.	.	(4cc	un-	.
.	.	.	.	.	.	.	.	.	8ee)	.	.
4.C	-serm	p	4.G	be-	p	4.f	be-	p	(4dd	-serm	.
.	.	.	.	.	.	.	.	.	8b)	.	.
=115	=115	=115	=115	=115	=115	=115	=115	=115	=115	=115	=115
[2.C	Lauf,	.	(4c	-geg-	.	(4e	-geg-	.	4.cc	Lauf,	.
.	.	.	8e)	.	.	8g)	.	.	.	.	.
.	.	.	(4d	-nen	.	(4f	-nen	.	4r	.	.
.	.	.	8B)	.	.	8d)	.	.	8r	.	.
=116	=116	=116	=116	=116	=116	=116	=116	=116	=116	=116	=116
4C]	.	.	(4c	un-	.	(4e	un-	.	4.g	un-	.
8r	.	.	8e)	.	.	8g)	.	.	.	.	.
4r	.	.	(4d	-serm	.	(4f	-serm	.	4.g	-serm	.
8r	.	.	8B)	.	.	8d)	.	.	.	.	.
=117	=117	=117	=117	=117	=117	=117	=117	=117	=117	=117	=117
2.r	.	.	2.c	Lauf,	.	2.e	Lauf,	.	2.g	Lauf,	.
=118	=118	=118	=118	=118	=118	=118	=118	=118	=118	=118	=118
4.C	un-	.	4.G	un-	.	4.c	un-	.	4.e	un-	.
4.C	-serm	.	4.G	-serm	.	4.c	-serm	.	4.e	-serm	.
=119	=119	=119	=119	=119	=119	=119	=119	=119	=119	=119	=119
!LO:TX:a:t=< >	!	!	!LO:TX:a:t=< >	!	!	!LO:TX:a:t=< >	!	!	!LO:TX:a:t=< >	!	!
2.C;	Lauf.	.	2.G;	Lauf.	.	2.c;	Lauf.	.	2.e;	Lauf.	.
==	==	==	==	==	==	==	==	==	==	==	==
*-	*-	*-	*-	*-	*-	*-	*-	*-	*-	*-	*-
!!!system-decoration: ([s1,s2,s3,s4])
!!!RDF**kern: i = editorial accidental
!!!AGN: Choral
!!!YOR: https://mdz-nbn-resolving.de/details:bsb11150717
!!!YOO: München, Bayerische Staatsbibliothek
!!!URL-scan: https://www.digitale-sammlungen.de/de/view/bsb11150717?page=17
!!!EED: Wolfgang Drescher
!!!END: 2024/11/22
!!!ENC: Wolfgang Drescher
!!!EEV: 2024/11/22
!!!title: @{OPS} @{ONM}. @{OTL}